X: 1
T: Hope And Despair
R: jig
M: 6/8
L: 1/8
K: Amin
AAA Bce|^dB^F =d_B=F|EAB cec'|ba^g eBc|
A2A Bce|^dB^F =d_B(=F|F)_Bc dfg|1 eBc B3:|2 ef(e e) ab||
c'ee c'e(b|b)eb beg|fBc dfe|^dB^d e^g/a/b|
c'ee c'e(b|b)^db ^fe^d|~e3 ~d3|ceA Bea|
c'eg c'e(b|b)dg bag|fga agf|e^G=F E^F^G|
~A3 ~B3|ceg fAB|cBA eA/B/c|~B3 _Bd_B||

